; generated by PrusaSlicer 2.7.2+MacOS-x64 on 2024-03-08 at 18:19:24 UTC


;
;

;
;

;
;

;
;

;
;
; 

; external perimeters extrusion width = 0.45mm
; perimeters extrusion width = 0.45mm
; infill extrusion width = 0.45mm
; solid infill extrusion width = 0.45mm
; top infill extrusion width = 0.42mm
; first layer extrusion width = 0.50mm

M73 P0 R1
M201 X4000 Y4000 Z200 E2500 ; sets maximum accelerations, mm/sec^2
M203 X300 Y300 Z40 E100 ; sets maximum feedrates, mm / sec
M204 P4000 R1200 T4000 ; sets acceleration (P, T) and retract acceleration (R), mm/sec^2
M205 X8.00 Y8.00 Z2.00 E10.00 ; sets the jerk limits, mm/sec
M205 S0 T0 ; sets the minimum extruding and travel feed rate, mm/sec

M486 S0
M486 AShape-Box
M486 S-1

;TYPE:Custom
M17 ; enable steppers
M862.1 P0.4 ; nozzle diameter check
M862.3 P "MK4" ; printer model check
M862.5 P2 ; g-code level check
M862.6 P"Input shaper" ; FW feature check
M115 U5.1.2+13478

M555 X122.5 Y98.5 W32 H9

G90 ; use absolute coordinates
M83 ; extruder relative mode

M140 S60 ; set bed temp
M104 T0 S170 ; set extruder temp for bed leveling
M109 T0 R170 ; wait for temp

M84 E ; turn off E motor

G28 ; home all without mesh bed level

G1 X42 Y-4 Z5 F4800

M302 S160 ; lower cold extrusion limit to 160C


G1 E-2 F2400 ; retraction


M84 E ; turn off E motor

G29 P9 X10 Y-4 W32 H4

M106 S100

G0 Z40 F10000

M190 S60 ; wait for bed temp

M107

;
; MBL
;
M84 E ; turn off E motor
G29 P1 ; invalidate mbl & probe print area
G29 P1 X0 Y0 W50 H20 C ; probe near purge place
G29 P3.2 ; interpolate mbl probes
G29 P3.13 ; extrapolate mbl outside probe area
G29 A ; activate mbl

; prepare for purge
M104 S230
G0 X0 Y-4 Z15 F4800 ; move away and ready for the purge
M73 P1 R1
M109 S230

G92 E0
M569 S0 E ; set spreadcycle mode for extruder

;
; Extrude purge line
;
G92 E0 ; reset extruder position
G1 E2 F2400 ; deretraction after the initial one before nozzle cleaning
M73 P2 R1
G0 E7 X15 Z0.2 F500 ; purge
G0 X25 E4 F500 ; purge
M73 P4 R1
G0 X35 E4 F650 ; purge
M73 P5 R1
G0 X45 E4 F800 ; purge
M73 P6 R1
G0 X48 Z0.05 F8000 ; wipe, move close to the bed
M73 P7 R1
G0 X51 Z0.2 F8000 ; wipe, move quickly away from the bed

G92 E0
M221 S100 ; set flow to 100%
G21 ; set units to millimeters
G90 ; use absolute coordinates
M83 ; use relative distances for extrusion
M900 K0.05 ; Filament gcode


M572 S0.038 ; Filament gcode


M142 S36 ; set heatbreak target temp
M107
;LAYER_CHANGE
;Z:0.2
;HEIGHT:0.2
G1 E-.7 F2100
M486 S0
G1 Z.8 F720
G1 X126.593 Y106.593 F18000
G1 Z.2 F720
G1 E.7 F2100
M73 P8 R1
M204 P500
;TYPE:Perimeter
;WIDTH:0.499999
G1 F900
G1 X123.407 Y106.593 E.12109
G1 X123.407 Y103.407 E.12109
G1 X126.593 Y103.407 E.12109
G1 X126.593 Y105 E.06054
G1 X126.593 Y106.533 E.05826
M204 P4000
M204 T4000
G1 X127.05 Y107.05 F18000
M204 P500
;TYPE:External perimeter
G1 F900
G1 X122.95 Y107.05 E.15583
G1 X122.95 Y102.95 E.15583
M73 P9 R1
G1 X127.05 Y102.95 E.15583
G1 X127.05 Y105 E.07791
G1 X127.05 Y106.99 E.07563
M204 P4000
G1 X126.654 Y107.049 F18000
G1 E-.7 F2100
G1 X125.381 Y103.59 Z.264 F18000
G1 Z.2 F720
G1 E.7 F2100
M204 P500
;TYPE:Solid infill
;WIDTH:0.549541
G1 F900
G1 X126.204 Y104.413 E.04903
G1 X126.204 Y105.13 E.0302
M73 P10 R1
G1 X124.87 Y103.796 E.07947
G1 X124.154 Y103.796 E.03016
G1 X126.204 Y105.846 E.12213
G1 X126.204 Y106.204 E.01508
G1 X125.846 Y106.204 E.01508
G1 X123.796 Y104.154 E.12213
G1 X123.796 Y104.87 E.03016
G1 X125.13 Y106.204 E.07947
G1 X124.413 Y106.204 E.0302
G1 X123.59 Y105.381 E.04903
M204 P4000
M486 S-1
M106 S127.5
;LAYER_CHANGE
;Z:0.4
;HEIGHT:0.2
;BEFORE_LAYER_CHANGE
G92 E0.0
;0.4
M201 X3999.99 Y3999.99
M74 W0.00523509

G1 E-.7 F2100
G1 X123.59 Y105.381 Z.2 F18000
G1 X126.868 Y106.868 Z.4 F13159.599
G1 X126.868 Y106.868 Z.4 F18000
M73 P11 R1
;AFTER_LAYER_CHANGE
;0.4
M104 S225 ; set temperature
M486 S0
G1 X126.868 Y106.868
G1 Z.4 F720
G1 E.7 F2100
;TYPE:Perimeter
;WIDTH:0.449999
G1 F900
G1 X123.132 Y106.868 E.12646
G1 X123.132 Y103.132 E.12646
G1 X126.868 Y103.132 E.12646
G1 X126.868 Y105 E.06323
G1 X126.868 Y106.808 E.0612
G1 X127.275 Y107.275 F18000
M73 P12 R1
;TYPE:External perimeter
G1 F900
G1 X122.725 Y107.275 E.15401
G1 X122.725 Y102.725 E.15401
G1 X127.275 Y102.725 E.15401
G1 X127.275 Y105 E.07701
G1 X127.275 Y107.215 E.07498
G1 X126.879 Y107.274 F18000
M73 P13 R1
G1 E-.7 F2100
G1 X126.522 Y103.478 Z.467 F18000
G1 Z.4 F720
G1 E.7 F2100
;TYPE:Solid infill
G1 F900
G1 X123.478 Y103.478 E.10304
G1 X123.478 Y106.522 E.10304
G1 X126.522 Y106.522 E.10304
G1 X126.522 Y103.682 E.09613
G1 X126.115 Y103.885 E.01539
G1 X123.885 Y103.885 E.07548
G1 X123.885 Y106.115 E.07548
M73 P14 R1
G1 X126.115 Y106.115 E.07548
G1 X126.115 Y104.089 E.06858
G1 X125.708 Y104.292 E.01539
G1 X124.292 Y104.292 E.04793
G1 X124.292 Y105.708 E.04793
G1 X125.708 Y105.708 E.04793
G1 X125.708 Y104.496 E.04102
G1 X125.252 Y104.748 E.01764
;WIDTH:0.547126
G1 X124.748 Y104.748 E.02113
G1 X124.748 Y105.252 E.02113
G1 X125.252 Y105.252 E.02113
G1 X125.252 Y104.951 E.01262
M486 S-1
M106 S255
;LAYER_CHANGE
;Z:0.6
;HEIGHT:0.2
;BEFORE_LAYER_CHANGE
G92 E0.0
;0.6
M201 X3999.99 Y3999.99
M74 W0.01158

G1 E-.7 F2100
G1 X125.252 Y104.951 Z.4 F18000
G1 X126.868 Y106.868 Z.6 F9383.314
G1 X126.868 Y106.868 Z.6 F18000
M73 P15 R1
;AFTER_LAYER_CHANGE
;0.6
M486 S0
G1 X126.868 Y106.868
G1 Z.6 F720
G1 E.7 F2100
;TYPE:Perimeter
;WIDTH:0.449999
G1 F900
G1 X123.132 Y106.868 E.12646
G1 X123.132 Y103.132 E.12646
G1 X126.868 Y103.132 E.12646
G1 X126.868 Y105 E.06323
G1 X126.868 Y106.808 E.0612
G1 X127.275 Y107.275 F18000
M73 P16 R1
;TYPE:External perimeter
G1 F900
G1 X122.725 Y107.275 E.15401
G1 X122.725 Y102.725 E.15401
G1 X127.275 Y102.725 E.15401
G1 X127.275 Y105 E.07701
G1 X127.275 Y107.215 E.07498
G1 X126.879 Y107.274 F18000
M73 P17 R1
G1 E-.7 F2100
G1 X123.478 Y103.478 Z.689 F18000
G1 Z.6 F720
G1 E.7 F2100
;TYPE:Solid infill
G1 F900
G1 X123.478 Y106.522 E.10304
G1 X126.522 Y106.522 E.10304
G1 X126.522 Y103.478 E.10304
G1 X123.682 Y103.478 E.09613
G1 X123.885 Y103.885 E.01539
G1 X123.885 Y106.115 E.07548
G1 X126.115 Y106.115 E.07548
M73 P18 R1
G1 X126.115 Y103.885 E.07548
G1 X124.089 Y103.885 E.06858
G1 X124.292 Y104.292 E.01539
G1 X124.292 Y105.708 E.04793
G1 X125.708 Y105.708 E.04793
G1 X125.708 Y104.292 E.04793
G1 X124.496 Y104.292 E.04102
G1 X124.748 Y104.748 E.01764
;WIDTH:0.547126
G1 X124.748 Y105.252 E.02113
G1 X125.252 Y105.252 E.02113
G1 X125.252 Y104.748 E.02113
G1 X124.951 Y104.748 E.01262
M486 S-1
;LAYER_CHANGE
;Z:0.8
;HEIGHT:0.2
;BEFORE_LAYER_CHANGE
G92 E0.0
;0.8
M201 X3999.98 Y3999.98
M74 W0.0179249

G1 E-.7 F2100
G1 X124.951 Y104.748 Z.6 F18000
G1 X126.868 Y106.868 Z.8 F10596.791
G1 X126.868 Y106.868 Z.8 F18000
M73 P19 R1
;AFTER_LAYER_CHANGE
;0.8
M486 S0
G1 X126.868 Y106.868
G1 Z.8 F720
G1 E.7 F2100
;TYPE:Perimeter
;WIDTH:0.449999
G1 F900
G1 X123.132 Y106.868 E.12646
G1 X123.132 Y103.132 E.12646
G1 X126.868 Y103.132 E.12646
G1 X126.868 Y105 E.06323
G1 X126.868 Y106.808 E.0612
G1 X127.275 Y107.275 F18000
M73 P20 R1
;TYPE:External perimeter
G1 F900
G1 X122.725 Y107.275 E.15401
G1 X122.725 Y102.725 E.15401
G1 X127.275 Y102.725 E.15401
G1 X127.275 Y105 E.07701
G1 X127.275 Y107.215 E.07498
G1 X126.879 Y107.274 F18000
M73 P21 R1
G1 E-.7 F2100
G1 X126.522 Y103.478 Z.867 F18000
G1 Z.8 F720
G1 E.7 F2100
;TYPE:Solid infill
G1 F900
G1 X123.478 Y103.478 E.10304
G1 X123.478 Y106.522 E.10304
G1 X126.522 Y106.522 E.10304
G1 X126.522 Y103.682 E.09613
G1 X126.115 Y103.885 E.01539
G1 X123.885 Y103.885 E.07548
G1 X123.885 Y106.115 E.07548
M73 P22 R1
G1 X126.115 Y106.115 E.07548
G1 X126.115 Y104.089 E.06858
G1 X125.708 Y104.292 E.01539
G1 X124.292 Y104.292 E.04793
G1 X124.292 Y105.708 E.04793
G1 X125.708 Y105.708 E.04793
G1 X125.708 Y104.496 E.04102
G1 X125.252 Y104.748 E.01764
;WIDTH:0.547126
G1 X124.748 Y104.748 E.02113
G1 X124.748 Y105.252 E.02113
G1 X125.252 Y105.252 E.02113
G1 X125.252 Y104.951 E.01262
M486 S-1
;LAYER_CHANGE
;Z:1
;HEIGHT:0.2
;BEFORE_LAYER_CHANGE
G92 E0.0
;1
M201 X3999.97 Y3999.97
M74 W0.0242698

G1 E-.7 F2100
G1 X125.252 Y104.951 Z.8 F18000
M73 P23 R1
G1 X126.868 Y106.868 Z1 F9383.314
G1 X126.868 Y106.868 Z1 F18000
;AFTER_LAYER_CHANGE
;1
M486 S0
G1 X126.868 Y106.868
G1 Z1 F720
G1 E.7 F2100
;TYPE:Perimeter
;WIDTH:0.449999
G1 F900
G1 X123.132 Y106.868 E.12646
G1 X123.132 Y103.132 E.12646
G1 X126.868 Y103.132 E.12646
G1 X126.868 Y105 E.06323
G1 X126.868 Y106.808 E.0612
G1 X127.275 Y107.275 F18000
M73 P24 R1
;TYPE:External perimeter
G1 F900
G1 X122.725 Y107.275 E.15401
G1 X122.725 Y102.725 E.15401
G1 X127.275 Y102.725 E.15401
G1 X127.275 Y105 E.07701
G1 X127.275 Y107.215 E.07498
M73 P25 R1
G1 X126.879 Y107.274 F18000
G1 E-.7 F2100
G1 X126.522 Y105.478 Z1.032 F18000
G1 Z1 F720
G1 E.7 F2100
;TYPE:Internal infill
;WIDTH:0.45
G1 F900
G1 X126.522 Y103.478 E.0677
G1 X123.478 Y106.522 E.14571
G1 X123.478 Y103.478 E.10304
G1 X126.522 Y106.522 E.14571
G1 X124.522 Y106.522 E.0677
M73 P26 R1
M486 S-1
;LAYER_CHANGE
;Z:1.2
;HEIGHT:0.2
;BEFORE_LAYER_CHANGE
G92 E0.0
;1.2
M201 X3999.97 Y3999.97
M74 W0.0291841

G1 E-.7 F2100
G1 X124.522 Y106.522 Z1 F18000
G1 X126.868 Y106.868 Z1.2 F8915.544
;AFTER_LAYER_CHANGE
;1.2
M486 S0
G1 X126.868 Y106.868 F18000
G1 Z1.2 F720
G1 E.7 F2100
;TYPE:Perimeter
;WIDTH:0.449999
G1 F900
G1 X123.132 Y106.868 E.12646
G1 X123.132 Y103.132 E.12646
G1 X126.868 Y103.132 E.12646
G1 X126.868 Y105 E.06323
M73 P27 R1
G1 X126.868 Y106.808 E.0612
G1 X127.275 Y107.275 F18000
;TYPE:External perimeter
G1 F900
G1 X122.725 Y107.275 E.15401
G1 X122.725 Y102.725 E.15401
G1 X127.275 Y102.725 E.15401
G1 X127.275 Y105 E.07701
M73 P28 R1
G1 X127.275 Y107.215 E.07498
G1 X126.879 Y107.274 F18000
G1 E-.7 F2100
G1 X126.522 Y105.478 Z1.232 F18000
G1 Z1.2 F720
G1 E.7 F2100
;TYPE:Internal infill
;WIDTH:0.45
G1 F900
G1 X126.522 Y103.478 E.0677
G1 X123.478 Y106.522 E.14571
G1 X123.478 Y103.478 E.10304
G1 X126.522 Y106.522 E.14571
G1 X124.522 Y106.522 E.0677
M73 P29 R1
M486 S-1
;LAYER_CHANGE
;Z:1.4
;HEIGHT:0.2
;BEFORE_LAYER_CHANGE
G92 E0.0
;1.4
M201 X3999.96 Y3999.96
M74 W0.0340984

G1 E-.7 F2100
G1 X124.522 Y106.522 Z1.2 F18000
G1 X126.868 Y106.868 Z1.4 F8915.544
;AFTER_LAYER_CHANGE
;1.4
M486 S0
G1 X126.868 Y106.868 F18000
G1 Z1.4 F720
G1 E.7 F2100
;TYPE:Perimeter
;WIDTH:0.449999
G1 F900
G1 X123.132 Y106.868 E.12646
G1 X123.132 Y103.132 E.12646
G1 X126.868 Y103.132 E.12646
M73 P30 R1
G1 X126.868 Y105 E.06323
G1 X126.868 Y106.808 E.0612
G1 X127.275 Y107.275 F18000
;TYPE:External perimeter
G1 F900
G1 X122.725 Y107.275 E.15401
G1 X122.725 Y102.725 E.15401
G1 X127.275 Y102.725 E.15401
G1 X127.275 Y105 E.07701
M73 P31 R1
G1 X127.275 Y107.215 E.07498
G1 X126.879 Y107.274 F18000
G1 E-.7 F2100
G1 X126.522 Y105.478 Z1.432 F18000
G1 Z1.4 F720
G1 E.7 F2100
;TYPE:Internal infill
;WIDTH:0.45
G1 F900
G1 X126.522 Y103.478 E.0677
G1 X123.478 Y106.522 E.14571
G1 X123.478 Y103.478 E.10304
G1 X126.522 Y106.522 E.14571
M73 P32 R1
G1 X124.522 Y106.522 E.0677
M486 S-1
;LAYER_CHANGE
;Z:1.6
;HEIGHT:0.2
;BEFORE_LAYER_CHANGE
G92 E0.0
;1.6
M201 X3999.96 Y3999.96
M74 W0.0390127

G1 E-.7 F2100
G1 X124.522 Y106.522 Z1.4 F18000
G1 X126.868 Y106.868 Z1.6 F8915.503
;AFTER_LAYER_CHANGE
;1.6
M486 S0
G1 X126.868 Y106.868 F18000
G1 Z1.6 F720
G1 E.7 F2100
;TYPE:Perimeter
;WIDTH:0.449999
G1 F900
G1 X123.132 Y106.868 E.12646
G1 X123.132 Y103.132 E.12646
G1 X126.868 Y103.132 E.12646
M73 P33 R1
G1 X126.868 Y105 E.06323
G1 X126.868 Y106.808 E.0612
G1 X127.275 Y107.275 F18000
;TYPE:External perimeter
G1 F900
G1 X122.725 Y107.275 E.15401
G1 X122.725 Y102.725 E.15401
G1 X127.275 Y102.725 E.15401
M73 P34 R1
G1 X127.275 Y105 E.07701
G1 X127.275 Y107.215 E.07498
G1 X126.879 Y107.274 F18000
G1 E-.7 F2100
G1 X126.522 Y105.478 Z1.632 F18000
G1 Z1.6 F720
G1 E.7 F2100
;TYPE:Internal infill
;WIDTH:0.45
G1 F900
G1 X126.522 Y103.478 E.0677
G1 X123.478 Y106.522 E.14571
G1 X123.478 Y103.478 E.10304
M73 P35 R1
G1 X126.522 Y106.522 E.14571
G1 X124.522 Y106.522 E.0677
M486 S-1
;LAYER_CHANGE
;Z:1.8
;HEIGHT:0.2
;BEFORE_LAYER_CHANGE
G92 E0.0
;1.8
M201 X3999.95 Y3999.95
M74 W0.043927

G1 E-.7 F2100
G1 X124.522 Y106.522 Z1.6 F18000
G1 X126.868 Y106.868 Z1.8 F8915.544
;AFTER_LAYER_CHANGE
;1.8
M486 S0
G1 X126.868 Y106.868 F18000
G1 Z1.8 F720
G1 E.7 F2100
;TYPE:Perimeter
;WIDTH:0.449999
G1 F900
G1 X123.132 Y106.868 E.12646
G1 X123.132 Y103.132 E.12646
M73 P36 R1
G1 X126.868 Y103.132 E.12646
G1 X126.868 Y105 E.06323
G1 X126.868 Y106.808 E.0612
G1 X127.275 Y107.275 F18000
;TYPE:External perimeter
G1 F900
G1 X122.725 Y107.275 E.15401
G1 X122.725 Y102.725 E.15401
M73 P37 R1
G1 X127.275 Y102.725 E.15401
G1 X127.275 Y105 E.07701
G1 X127.275 Y107.215 E.07498
G1 X126.879 Y107.274 F18000
G1 E-.7 F2100
G1 X126.522 Y105.478 Z1.832 F18000
G1 Z1.8 F720
G1 E.7 F2100
;TYPE:Internal infill
;WIDTH:0.45
G1 F900
G1 X126.522 Y103.478 E.0677
G1 X123.478 Y106.522 E.14571
M73 P38 R1
G1 X123.478 Y103.478 E.10304
G1 X126.522 Y106.522 E.14571
G1 X124.522 Y106.522 E.0677
M486 S-1
;LAYER_CHANGE
;Z:2
;HEIGHT:0.2
;BEFORE_LAYER_CHANGE
G92 E0.0
;2
M201 X3999.95 Y3999.95
M74 W0.0488414

G1 E-.7 F2100
G1 X124.522 Y106.522 Z1.8 F18000
G1 X126.868 Y106.868 Z2 F8915.503
;AFTER_LAYER_CHANGE
;2
M486 S0
G1 X126.868 Y106.868 F18000
M73 P39 R1
G1 Z2 F720
G1 E.7 F2100
;TYPE:Perimeter
;WIDTH:0.449999
G1 F900
G1 X123.132 Y106.868 E.12646
G1 X123.132 Y103.132 E.12646
G1 X126.868 Y103.132 E.12646
G1 X126.868 Y105 E.06323
G1 X126.868 Y106.808 E.0612
G1 X127.275 Y107.275 F18000
;TYPE:External perimeter
G1 F900
M73 P40 R1
G1 X122.725 Y107.275 E.15401
G1 X122.725 Y102.725 E.15401
G1 X127.275 Y102.725 E.15401
G1 X127.275 Y105 E.07701
G1 X127.275 Y107.215 E.07498
G1 X126.879 Y107.274 F18000
M73 P41 R1
G1 E-.7 F2100
G1 X126.522 Y105.478 Z2.032 F18000
G1 Z2 F720
G1 E.7 F2100
;TYPE:Internal infill
;WIDTH:0.45
G1 F900
G1 X126.522 Y103.478 E.0677
G1 X123.478 Y106.522 E.14571
G1 X123.478 Y103.478 E.10304
G1 X126.522 Y106.522 E.14571
G1 X124.522 Y106.522 E.0677
M486 S-1
;LAYER_CHANGE
;Z:2.2
;HEIGHT:0.2
;BEFORE_LAYER_CHANGE
G92 E0.0
;2.2
M201 X3999.94 Y3999.94
M74 W0.0537557

G1 E-.7 F2100
M73 P42 R1
G1 X124.522 Y106.522 Z2 F18000
G1 X126.868 Y106.868 Z2.2 F8915.544
;AFTER_LAYER_CHANGE
;2.2
M486 S0
G1 X126.868 Y106.868 F18000
G1 Z2.2 F720
G1 E.7 F2100
;TYPE:Perimeter
;WIDTH:0.449999
G1 F900
G1 X123.132 Y106.868 E.12646
G1 X123.132 Y103.132 E.12646
G1 X126.868 Y103.132 E.12646
G1 X126.868 Y105 E.06323
G1 X126.868 Y106.808 E.0612
M73 P43 R1
G1 X127.275 Y107.275 F18000
;TYPE:External perimeter
G1 F900
G1 X122.725 Y107.275 E.15401
G1 X122.725 Y102.725 E.15401
G1 X127.275 Y102.725 E.15401
G1 X127.275 Y105 E.07701
G1 X127.275 Y107.215 E.07498
M73 P44 R1
G1 X126.879 Y107.274 F18000
G1 E-.7 F2100
G1 X126.522 Y105.478 Z2.232 F18000
G1 Z2.2 F720
G1 E.7 F2100
;TYPE:Internal infill
;WIDTH:0.45
G1 F900
G1 X126.522 Y103.478 E.0677
G1 X123.478 Y106.522 E.14571
G1 X123.478 Y103.478 E.10304
G1 X126.522 Y106.522 E.14571
G1 X124.522 Y106.522 E.0677
M73 P45 R1
M486 S-1
;LAYER_CHANGE
;Z:2.4
;HEIGHT:0.2
;BEFORE_LAYER_CHANGE
G92 E0.0
;2.4
M201 X3999.94 Y3999.94
M74 W0.05867

G1 E-.7 F2100
G1 X124.522 Y106.522 Z2.2 F18000
G1 X126.868 Y106.868 Z2.4 F8915.544
;AFTER_LAYER_CHANGE
;2.4
M486 S0
G1 X126.868 Y106.868 F18000
G1 Z2.4 F720
G1 E.7 F2100
;TYPE:Perimeter
;WIDTH:0.449999
G1 F900
G1 X123.132 Y106.868 E.12646
G1 X123.132 Y103.132 E.12646
G1 X126.868 Y103.132 E.12646
G1 X126.868 Y105 E.06323
M73 P46 R1
G1 X126.868 Y106.808 E.0612
G1 X127.275 Y107.275 F18000
;TYPE:External perimeter
G1 F900
G1 X122.725 Y107.275 E.15401
G1 X122.725 Y102.725 E.15401
G1 X127.275 Y102.725 E.15401
G1 X127.275 Y105 E.07701
M73 P47 R1
G1 X127.275 Y107.215 E.07498
G1 X126.879 Y107.274 F18000
G1 E-.7 F2100
G1 X126.522 Y105.478 Z2.432 F18000
G1 Z2.4 F720
G1 E.7 F2100
;TYPE:Internal infill
;WIDTH:0.45
G1 F900
G1 X126.522 Y103.478 E.0677
G1 X123.478 Y106.522 E.14571
G1 X123.478 Y103.478 E.10304
G1 X126.522 Y106.522 E.14571
M73 P48 R1
G1 X124.522 Y106.522 E.0677
M486 S-1
;LAYER_CHANGE
;Z:2.6
;HEIGHT:0.2
;BEFORE_LAYER_CHANGE
G92 E0.0
;2.6
M201 X3999.93 Y3999.93
M74 W0.0635843

G1 E-.7 F2100
M73 P48 R0
G1 X124.522 Y106.522 Z2.4 F18000
G1 X126.868 Y106.868 Z2.6 F8915.544
;AFTER_LAYER_CHANGE
;2.6
M486 S0
